cssgg/format-strike.svg

<svg viewBox="0 0 24 24" xmlns="http://www.w3.org/2000/svg"><g><path d="M13 7h4V5H7v2h4v3h2V7Z"/><path d="M11 19v-5h2v5h-2Z"/><path d="M5 13h14v-2H5v2Z"/></g></svg>

<svg
  width="24"
  height="24"
  viewBox="0 0 24 24"
  fill="none"
  xmlns="http://www.w3.org/2000/svg"
>
  <path d="M13 7H17V5H7V7H11V10H13V7Z" fill="currentColor" />
  <path d="M11 19V14H13V19H11Z" fill="currentColor" />
  <path d="M5 13H19V11H5V13Z" fill="currentColor" />
</svg>
